X:154
T:Spillane's
R:polka
D:Paudie O'Connor and Aoife N\'i Chaoimh: Didn't She Dance and Dance
Z:id:hn-polka-154
M:2/4
L:1/8
K:D
D2 FE/F/ | AF D2 | FE/F/ AD | FE EF |
D2 FE/F/ | AF DE/F/ | GE CE |1 ED DA, :|2 ED D2 ||
|: d2 B/c/d/B/ | AF D2 | FE/F/ AD | FE E2 |
Ad B/c/d/B/ | AF DE/F/ | GE CE |1 ED D2 :|2 ED DA, ||

